communes/6511.svg

<?xml version="1.0" encoding="UTF-8" standalone="no"?>
<!-- Created with Inkscape (http://www.inkscape.org/) -->

<svg
   xmlns:dc="http://purl.org/dc/elements/1.1/"
   xmlns:cc="http://creativecommons.org/ns#"
   xmlns:rdf="http://www.w3.org/1999/02/22-rdf-syntax-ns#"
   xmlns:svg="http://www.w3.org/2000/svg"
   xmlns="http://www.w3.org/2000/svg"
   xmlns:sodipodi="http://sodipodi.sourceforge.net/DTD/sodipodi-0.dtd"
   xmlns:inkscape="http://www.inkscape.org/namespaces/inkscape"
   version="1.0"
   width="208.86046"
   height="244.65999"
   id="svg2780"
   inkscape:version="0.92.5 (2060ec1f9f, 2020-04-08)"
   sodipodi:docname="LesVerrières-blazon.svg">
  <metadata
     id="metadata27">
    <rdf:RDF>
      <cc:Work
         rdf:about="">
        <dc:format>image/svg+xml</dc:format>
        <dc:type
           rdf:resource="http://purl.org/dc/dcmitype/StillImage" />
        <dc:title></dc:title>
      </cc:Work>
    </rdf:RDF>
  </metadata>
  <sodipodi:namedview
     pagecolor="#ffffff"
     bordercolor="#666666"
     borderopacity="1"
     objecttolerance="10"
     gridtolerance="10"
     guidetolerance="10"
     inkscape:pageopacity="0"
     inkscape:pageshadow="2"
     inkscape:window-width="3287"
     inkscape:window-height="1417"
     id="namedview25"
     showgrid="false"
     inkscape:zoom="1"
     inkscape:cx="-365.03008"
     inkscape:cy="-36.195068"
     inkscape:window-x="-8"
     inkscape:window-y="-8"
     inkscape:window-maximized="1"
     inkscape:current-layer="svg2780"
     inkscape:measure-start="104.255,149.787"
     inkscape:measure-end="104.255,126.383"
     showguides="true"
     inkscape:object-paths="true"
     inkscape:snap-intersection-paths="true"
     inkscape:snap-object-midpoints="true" />
  <defs
     id="defs2782" />
  <path
     id="path4212-6"
     style="fill:#1b63c6;fill-opacity:1;fill-rule:evenodd;stroke:#000000;stroke-width:1.99999988;stroke-linecap:butt;stroke-miterlimit:4;stroke-dashoffset:0;stroke-opacity:1"
     d="M 1.000033,149.10355 V 0.99999834 c 68.953472,0 137.906947,0 206.860417,0 V 149.10355 c 0,51.44535 -51.71515,94.56785 -103.43021,94.56785 -51.71506,0 -103.430207,-43.1225 -103.430207,-94.56785 z"
     inkscape:connector-curvature="0"
     sodipodi:nodetypes="sccscs" />
  <path
     id="path12954-2"
     style="opacity:1;fill:#ffffff;fill-opacity:1;stroke:#000000;stroke-width:1;stroke-miterlimit:2;stroke-dasharray:none;stroke-dashoffset:4.57999992;stroke-opacity:1"
     d="M 151.59283,232.06331 1.0043597,61.004953 1.000033,1.0000359 53.868808,1.0554026 204.44008,172.09422 c -8.887,27.46163 -27.86079,46.29132 -52.84725,59.96909 z"
     inkscape:connector-curvature="0"
     sodipodi:nodetypes="cccccc" />
  <path
     id="path4173-5-9-49-7"
     style="opacity:1;fill:#1b63c6;fill-opacity:1;stroke:#000000;stroke-width:0.99999994;stroke-miterlimit:8;stroke-dasharray:none;stroke-dashoffset:4.57999992;stroke-opacity:1"
     d="m 128.44924,97.113769 -20.05661,1.94374 -8.34498,-18.341391 -8.34499,18.341391 -20.05661,-1.94373 11.711625,16.397661 -11.711625,16.39767 20.05661,-1.94373 8.345,18.3414 8.34497,-18.3414 20.05662,1.94372 -11.71162,-16.39766 z"
     inkscape:connector-curvature="0"
     sodipodi:nodetypes="ccccccccccccc" />
  <path
     id="path4173-5-9-49-7-6"
     style="opacity:1;fill:#1b63c6;fill-opacity:1;stroke:#000000;stroke-width:0.99999994;stroke-miterlimit:8;stroke-dasharray:none;stroke-dashoffset:4.57999992;stroke-opacity:1"
     d="m 180.44924,156.18228 -20.05661,1.94373 -8.34498,-18.3414 -8.34498,18.3414 -20.05662,-1.94372 11.71163,16.39766 -11.71163,16.39767 20.05662,-1.94373 8.34499,18.3414 8.34497,-18.3414 20.05662,1.94372 -11.71162,-16.39766 z"
     inkscape:connector-curvature="0"
     sodipodi:nodetypes="ccccccccccccc" />
  <path
     id="path4173-5-9-49-7-8"
     style="opacity:1;fill:#1b63c6;fill-opacity:1;stroke:#000000;stroke-width:0.99999994;stroke-miterlimit:8;stroke-dasharray:none;stroke-dashoffset:4.57999992;stroke-opacity:1"
     d="M 76.449231,38.045283 56.39263,39.989014 48.047646,21.647626 39.70266,39.989014 19.64605,38.045291 31.357676,54.442952 19.64605,70.840622 39.70266,68.896891 48.047654,87.238292 56.39263,68.896891 76.449241,70.840613 64.737623,54.442952 Z"
     inkscape:connector-curvature="0"
     sodipodi:nodetypes="ccccccccccccc" />
  <path
     id="path4212-6-1"
     style="fill:none;fill-opacity:1;fill-rule:evenodd;stroke:#000000;stroke-width:1.99999988;stroke-linecap:butt;stroke-miterlimit:4;stroke-dashoffset:0;stroke-opacity:1"
     d="M 1.000033,149.10355 V 0.99999834 c 68.953472,0 137.906947,0 206.860417,0 V 149.10355 c 0,51.44535 -51.71515,94.56785 -103.43021,94.56785 -51.71506,0 -103.430207,-43.1225 -103.430207,-94.56785 z"
     inkscape:connector-curvature="0"
     sodipodi:nodetypes="sccscs" />
</svg>

<?xml version="1.0" encoding="UTF-8"?>
<svg version="1.0" viewBox="0 0 208.86 244.66" xmlns="http://www.w3.org/2000/svg" xmlns:cc="http://creativecommons.org/ns#" xmlns:dc="http://purl.org/dc/elements/1.1/" xmlns:rdf="http://www.w3.org/1999/02/22-rdf-syntax-ns#">
<metadata>
<rdf:RDF>
<cc:Work rdf:about="">
<dc:format>image/svg+xml</dc:format>
<dc:type rdf:resource="http://purl.org/dc/dcmitype/StillImage"/>
<dc:title/>
</cc:Work>
</rdf:RDF>
</metadata>
<path d="m1 149.1v-148.1h206.86v148.1c0 51.445-51.715 94.568-103.43 94.568s-103.43-43.122-103.43-94.568z" fill="#1b63c6" fill-rule="evenodd" stroke="#000" stroke-width="2"/>
<path d="m151.59 232.06-150.59-171.06-0.0043267-60.005 52.869 0.055367 150.57 171.04c-8.887 27.462-27.861 46.291-52.847 59.969z" fill="#fff" stroke="#000" stroke-dashoffset="4.58" stroke-miterlimit="2"/>
<path d="m128.45 97.114-20.057 1.9437-8.345-18.341-8.345 18.341-20.057-1.9437 11.712 16.398-11.712 16.398 20.057-1.9437 8.345 18.341 8.345-18.341 20.057 1.9437-11.712-16.398z" fill="#1b63c6" stroke="#000" stroke-dashoffset="4.58" stroke-miterlimit="8"/>
<path d="m180.45 156.18-20.057 1.9437-8.345-18.341-8.345 18.341-20.057-1.9437 11.712 16.398-11.712 16.398 20.057-1.9437 8.345 18.341 8.345-18.341 20.057 1.9437-11.712-16.398z" fill="#1b63c6" stroke="#000" stroke-dashoffset="4.58" stroke-miterlimit="8"/>
<path d="m76.449 38.045-20.057 1.9437-8.345-18.341-8.345 18.341-20.057-1.9437 11.712 16.398-11.712 16.398 20.057-1.9437 8.345 18.341 8.345-18.341 20.057 1.9437-11.712-16.398z" fill="#1b63c6" stroke="#000" stroke-dashoffset="4.58" stroke-miterlimit="8"/>
<path d="m1 149.1v-148.1h206.86v148.1c0 51.445-51.715 94.568-103.43 94.568s-103.43-43.122-103.43-94.568z" fill="none" stroke="#000" stroke-width="2"/>
</svg>
